source/images/mozilla.svg

<svg width="94px" height="30px" viewBox="0 0 94 30" version="1.1" xmlns="http://www.w3.org/2000/svg" xmlns:xlink="http://www.w3.org/1999/xlink">
    <!-- Generator: Sketch 42 (36781) - http://www.bohemiancoding.com/sketch -->
    <desc>Created with Sketch.</desc>
    <defs></defs>
    <path d="M81.630453,18.9048387 C81.630453,19.6983871 82.0146916,20.3274194 83.0895872,20.3274194 C84.3541701,20.3274194 85.7014374,19.4241935 85.7825004,17.3741935 C85.1924286,17.2800537 84.5965767,17.2261646 83.9991142,17.2129032 C82.7296674,17.2112903 81.630453,17.566129 81.630453,18.9048387 L81.630453,18.9048387 Z" id="Shape" stroke="none" fill="#FFFFFF" fill-rule="nonzero"></path>
    <path d="M0,0 L0,29.9258065 L93.798011,29.9258065 L93.798011,0 L0,0 Z M26.5530002,22.5693548 L21.3649674,22.5693548 L21.3649674,15.6241935 C21.3649674,13.4919355 20.6499916,12.6709677 19.2492228,12.6709677 C17.5452783,12.6709677 16.8578639,13.8741935 16.8578639,15.5967742 L16.8578639,19.8935484 L18.4985793,19.8935484 L18.4985793,22.5725806 L13.3105465,22.5725806 L13.3105465,15.6241935 C13.3105465,13.4919355 12.597192,12.6709677 11.1948019,12.6709677 C9.49085743,12.6709677 8.80344309,13.8741935 8.80344309,15.5967742 L8.80344309,19.8935484 L11.1607555,19.8935484 L11.1607555,22.5725806 L3.60244025,22.5725806 L3.60244025,19.8935484 L5.25126191,19.8935484 L5.25126191,12.9177419 L3.46787565,12.9177419 L3.46787565,10.2387097 L8.79695805,10.2387097 L8.79695805,12.0967742 C9.53949524,10.7854839 10.8316396,9.99193548 12.5615243,9.99193548 C14.3449106,9.99193548 15.9969748,10.8403226 16.6017048,12.6451613 C17.2891192,11.0048387 18.689888,9.99193548 20.6418853,9.99193548 C22.8678756,9.99193548 24.9025572,11.3322581 24.9025572,14.2580645 L24.9025572,19.8935484 L26.5513789,19.8935484 L26.5530002,22.5693548 Z M34.4404312,22.8419355 C30.6207421,22.8419355 27.9813304,20.5177419 27.9813304,16.5806452 C27.9813304,12.9709677 30.1797593,9.99032258 34.6284974,9.99032258 C39.0772355,9.99032258 41.2529667,12.9709677 41.2529667,16.416129 C41.2562093,20.3548387 38.3979275,22.8435484 34.4404312,22.8435484 L34.4404312,22.8419355 Z M54.1744108,22.5693548 L43.3443924,22.5693548 L42.9877152,20.7096774 L49.7970082,12.916129 L45.9221962,12.916129 L45.372589,14.8306452 L42.8158616,14.5580645 L43.2552231,10.2370968 L54.1500919,10.2370968 L54.4240849,12.0967742 L47.5499415,19.8935484 L51.5560755,19.8935484 L52.1332442,17.9790323 L54.9364031,18.2516129 L54.1744108,22.5693548 Z M60.8799432,22.5693548 L57.1688785,22.5693548 L57.1688785,18.1403226 L60.8799432,18.1403226 L60.8799432,22.5693548 Z M60.8799432,14.666129 L57.1688785,14.666129 L57.1688785,10.2387097 L60.8799432,10.2387097 L60.8799432,14.666129 Z M62.8254555,22.5693548 L68.1902056,3.76451613 L71.6807789,3.76451613 L66.3208925,22.5693548 L62.8254555,22.5693548 Z M70.0270934,22.5693548 L75.388601,3.76451613 L78.8791743,3.76451613 L73.5225305,22.5693548 L70.0270934,22.5693548 Z M88.4964901,22.8419355 C86.8476684,22.8419355 85.9413839,21.883871 85.7760154,20.3806452 C85.0610396,21.6387097 83.7964566,22.8419355 81.7909577,22.8419355 C80.0075715,22.8419355 77.9712686,21.883871 77.9712686,19.3145161 C77.9712686,16.2790323 80.9122347,15.5693548 83.742955,15.5693548 C84.4228207,15.5635321 85.1023836,15.6001633 85.7776366,15.6790323 L85.7776366,15.2693548 C85.7776366,14.0112903 85.7500752,12.5080645 83.742955,12.5080645 C83.0004179,12.5080645 82.4232492,12.5629032 81.8460806,12.8629032 L81.3872639,14.6129032 L78.5565435,14.3112903 L79.1061508,11.1129032 C81.2770182,10.2370968 82.3762327,9.98387097 84.4109143,9.98387097 C87.0778873,9.98387097 89.3314391,11.3516129 89.3314391,14.1677419 L89.3314391,19.5274194 C89.3314391,20.2387097 89.6054321,20.4854839 90.184222,20.4854839 C90.3612808,20.4828668 90.537062,20.4551692 90.7062678,20.4032258 L90.7338292,22.2629032 C90.0482893,22.6343905 89.2819329,22.8337123 88.5013538,22.8435484 L88.4964901,22.8419355 Z" id="Shape" stroke="none" fill="#FFFFFF" fill-rule="nonzero"></path>
    <path d="M34.5766171,12.6983871 C32.7624269,12.6983871 31.635651,14.0370968 31.635651,16.3629032 C31.635651,18.4951613 32.6246198,20.1354839 34.5539194,20.1354839 C36.3956711,20.1354839 37.6051312,18.6596774 37.6051312,16.3080645 C37.6002674,13.8193548 36.2546214,12.6983871 34.5766171,12.6983871 L34.5766171,12.6983871 Z" id="Shape" stroke="none" fill="#FFFFFF" fill-rule="nonzero"></path>
</svg>

<svg width="94" height="30" viewBox="0 0 94 30" xmlns="http://www.w3.org/2000/svg"><path d="M81.63 18.905c0 .793.385 1.422 1.46 1.422 1.264 0 2.611-.903 2.693-2.953a13.176 13.176 0 0 0-1.784-.161c-1.27-.002-2.369.353-2.369 1.692z" fill="#FFF"/><path d="M0 0v29.926h93.798V0H0zm26.553 22.57h-5.188v-6.946c0-2.132-.715-2.953-2.116-2.953-1.704 0-2.391 1.203-2.391 2.926v4.297h1.64v2.679h-5.187v-6.949c0-2.132-.714-2.953-2.116-2.953-1.704 0-2.392 1.203-2.392 2.926v4.297h2.358v2.679H3.602v-2.68h1.65v-6.975H3.467v-2.68h5.329v1.859c.742-1.312 2.035-2.105 3.765-2.105 1.783 0 3.435.848 4.04 2.653.687-1.64 2.088-2.653 4.04-2.653 2.226 0 4.26 1.34 4.26 4.266v5.636h1.65l.001 2.675zm7.887.272c-3.82 0-6.459-2.324-6.459-6.261 0-3.61 2.199-6.59 6.647-6.59 4.45 0 6.625 2.98 6.625 6.425.003 3.939-2.855 6.428-6.813 6.428v-.002zm19.734-.273h-10.83l-.356-1.86 6.809-7.793h-3.875l-.55 1.915-2.556-.273.44-4.32H54.15l.274 1.859-6.874 7.797h4.006l.577-1.915 2.803.273-.762 4.317zm6.706 0h-3.711V18.14h3.71v4.43zm0-7.903h-3.711V10.24h3.71v4.427zm1.945 7.903L68.19 3.765h3.49l-5.36 18.804h-3.495zm7.202 0L75.39 3.765h3.49l-5.356 18.804h-3.496zm18.47.273c-1.65 0-2.556-.958-2.721-2.461-.715 1.258-1.98 2.46-3.985 2.46-1.783 0-3.82-.957-3.82-3.526 0-3.036 2.941-3.746 5.772-3.746.68-.005 1.36.031 2.035.11v-.41c0-1.258-.028-2.76-2.035-2.76-.743 0-1.32.054-1.897.354l-.459 1.75-2.83-.302.55-3.198c2.17-.876 3.27-1.13 5.304-1.13 2.667 0 4.92 1.369 4.92 4.185v5.36c0 .71.274.957.853.957.177-.002.353-.03.522-.082l.028 1.86a4.814 4.814 0 0 1-2.233.58l-.005-.001z" fill="#FFF"/><path d="M34.577 12.698c-1.815 0-2.941 1.34-2.941 3.665 0 2.132.989 3.772 2.918 3.772 1.842 0 3.051-1.475 3.051-3.827-.005-2.489-1.35-3.61-3.028-3.61z" fill="#FFF"/></svg>
